icon-themes/sifr_svg/cmd/lc_menubar.svg

<svg viewBox="0 0 24 24" xmlns="http://www.w3.org/2000/svg"><path d="m2 4v4h3v-1h14v1h3v-4zm9 4v5.5625l-2.28125-2.28125c-.18817-.18125-.45345-.28125-.71875-.28125h-1v1c0 .424264.1.53058.28125.71875l4 4 .28125.28125h.875l.28125-.28125 4-4c.28125-.18818.28125-.45346.28125-.71875v-1h-1c-.26531 0-.53057.1-.71875.28125l-2.28125 2.28125v-5.5625zm-9 1v9 2h20v-2-7-2h-3v2h1v7h-16v-7h1v-2h-1z" fill="#555753"/></svg>

<svg xmlns="http://www.w3.org/2000/svg" viewBox="0 0 24 24">
  <path
     style="fill:#555753"
     d="M 2 4 L 2 8 L 5 8 L 5 7 L 19 7 L 19 8 L 22 8 L 22 4 L 2 4 z M 11 8 L 11 13.5625 L 8.71875 11.28125 C 8.53058 11.1 8.2653 11 8 11 L 7 11 L 7 12 C 7 12.424264 7.1 12.53058 7.28125 12.71875 L 11.28125 16.71875 L 11.5625 17 L 12.4375 17 L 12.71875 16.71875 L 16.71875 12.71875 C 17 12.53057 17 12.26529 17 12 L 17 11 L 16 11 C 15.73469 11 15.46943 11.1 15.28125 11.28125 L 13 13.5625 L 13 8 L 11 8 z M 2 9 L 2 18 L 2 20 L 22 20 L 22 18 L 22 11 L 22 9 L 19 9 L 19 11 L 20 11 L 20 18 L 4 18 L 4 11 L 5 11 L 5 9 L 4 9 L 2 9 z "
     />
</svg>
